X:8
T:Wohlfahrt 8 Op 74 No 1
C:Franz Wohlfahrt / K.H. Aiquoni
L:1/8
Q:1/4=100
M:4/4
I:linebreak $
K:C
!f!"C" ceBd ceBd | cGEG AGEC |"G" G,B,DC B,AGE | Fedc BagB |"C" ceBd ceBd |$ cGEG AGEC | 
"G/D" B,G^FE DGBe |"D7" d^fba gdBc |"D7" de^ce dece | d^faf dAB=c |$"G" Bdce dg^fa | gba^f gdBc | 
"D7" de^ce dece | d^faf dAB=c |"G" Bdce dg^fa |$ gba^f gdBG |"C" EB,CD CA,B,C | EB,CD CEAG | 
"D7" ^FAcd ed^fb |"G" agd^c edBG |$"D7" ^FAcd ed^fb |"G" agd^c edBG |"G7" =FGEG FG,B,D | 
"G7" FGEG FG,B,D |"G7" FGEG FGEG |$ FG,B,D FBed |"C" ceBd ceBd | cGEF AGEC |"G7" G,B,DC B,AGE | 
Fedc BagB |$"C" ceBd ceBd | cGEG ceBd |"C" cGEC"G7" B,A,B,G, |"C" C2 z2 z4 |] 



